X:3
T: Ic sie die morgensterre
N: L0035A
O: Europa, Mitteleuropa, Deutschland
N: Wiener Hs, 15. Jh.
R: Lied
M: 4/4
L: 1/8
K: D
D2 | =F2G2A2d2 | =c2B2A2
A2 | =c2_B2A2G2 | G2=F2z2
FD | E2=F2G2D2 | D2=C2z2
=FD | E2=F2G2F2 | E2D4

